X:119
T:Pollonesse fr{\aa}n Djursdala
R:sl\"angpolska
A:Sm{\aa}land
B:Sm{\aa}l\"andsk musiktradition 184
Z:id:hn-sp-119
M:3/4
L:1/16
K:Am
e4 cBce dcdf | e2e2 ag^fg a4 | gagf efed cBcA | cBAG G2A2 A4 :|
|: cdec c2B2 B2G2 | BcdB c2A2 A4 | cdec c2B2 B2G2 | BcdB c2A2 A4 | 
e4 cBce dcdf | e2e2 ag^fg a4 | gagf efed cBcA | cBAG G2A2 A4 :|
<end>
<start>
